X:189
T:Billy Boy (b)
M:6/8
L:1/8
K:Gm
D2D|\
G2G G2G|G3  B2c|d3  G2F|G3 D2D|
G2G G2G|G2G B2c|d3  B2d|
d2d d2d|d3  c2B|c2c c2c|dc2 B2A|
G2A G2F|DC2 D2F|G2G A2F|G3 ||
